X: 54
T:Snowdon
M:6/8
L:1/8
Q:130
C:Trad
S:Blodau'r Grug Collection Vol. 1
R:Jig
A:Wales
Z:brian_martin12345@yahoo.com
K:C
G|c2e dcB|cdeG2F|EDCc2B|AGA GAB|c2e dcB|!cded2c|B2dA2d|BGG G2:||
G|GAGG2G|A2EF2f|edc cBc|!eddd2G|Gcc ceG|Gdd def|edc BAB|c2cc2:||

